dist/images/joy/communications2.svg

<svg width="126" height="126" viewBox="0 0 126 126" fill="none" xmlns="http://www.w3.org/2000/svg">
<circle cx="63" cy="63" r="61.5" stroke="#E2704C" stroke-width="3"/>
<path d="M92.2129 78.2971H91.5919V63.9069C91.5919 59.5464 88.0445 55.999 83.6841 55.999H69.2938V55.6073C69.2938 54.6203 68.4937 53.8202 67.5067 53.8202H59.4933C58.5063 53.8202 57.7062 54.6203 57.7062 55.6073V56.0904H50.3184V48.7026H51.2172C52.2042 48.7026 53.0043 47.9025 53.0043 46.9155V38.9021C53.0043 37.9151 52.2042 37.115 51.2172 37.115H34.7871C33.8001 37.115 33 37.9151 33 38.9021V46.9155C33 47.9025 33.8001 48.7026 34.7871 48.7026H35.4081V63.0929C35.4081 67.4533 38.9555 71.0007 43.3159 71.0007H57.7062V72.0374C57.7062 73.0243 58.5063 73.8245 59.4933 73.8245H67.5067C68.4937 73.8245 69.2938 73.0243 69.2938 72.0374V70.9092H76.6816V78.2971H75.7828C74.7958 78.2971 73.9957 79.0973 73.9957 80.0842V88.0976C73.9957 89.0846 74.7958 89.8848 75.7828 89.8848H92.2129C93.1999 89.8848 94 89.0846 94 88.0976V80.0842C94 79.0973 93.1999 78.2971 92.2129 78.2971ZM36.5742 40.6892H49.4301V45.1284H36.5742V40.6892ZM43.3159 67.4265C40.9263 67.4265 38.9823 65.4825 38.9823 63.0929V48.7026H46.7442V57.8775C46.7442 58.8645 47.5443 59.6646 48.5313 59.6646H57.7062V67.4265H43.3159ZM65.7196 70.2504H61.2804V57.3944H65.7196V70.2504ZM78.4687 67.3351H69.2938V59.5732H83.6841C86.0737 59.5732 88.0177 61.5173 88.0177 63.9069V78.2971H80.2558V69.1222C80.2558 68.1353 79.4557 67.3351 78.4687 67.3351ZM90.4258 86.3105H77.5699V81.8714H90.4258V86.3105Z" fill="#373737"/>
</svg>

<svg width="126" height="126" fill="none" xmlns="http://www.w3.org/2000/svg"><circle cx="63" cy="63" r="61.5" stroke="#E2704C" stroke-width="3"/><path d="M92.213 78.297h-.621v-14.39c0-4.36-3.547-7.908-7.908-7.908h-14.39v-.392c0-.987-.8-1.787-1.787-1.787h-8.014c-.987 0-1.787.8-1.787 1.787v.483h-7.388v-7.387h.9c.986 0 1.786-.8 1.786-1.788v-8.013c0-.987-.8-1.787-1.787-1.787h-16.43c-.987 0-1.787.8-1.787 1.787v8.014c0 .987.8 1.787 1.787 1.787h.621v14.39c0 4.36 3.547 7.908 7.908 7.908h14.39v1.036c0 .987.8 1.787 1.787 1.787h8.014c.987 0 1.787-.8 1.787-1.787V70.91h7.388v7.388h-.9c-.986 0-1.786.8-1.786 1.787v8.014c0 .987.8 1.787 1.787 1.787h16.43c.987 0 1.787-.8 1.787-1.787v-8.014c0-.987-.8-1.787-1.787-1.787zM36.574 40.69H49.43v4.44H36.574v-4.44zm6.742 26.738a4.338 4.338 0 01-4.334-4.334v-14.39h7.762v9.174c0 .987.8 1.788 1.787 1.788h9.175v7.762h-14.39zM65.72 70.25h-4.44V57.394h4.44V70.25zm12.749-2.915h-9.175v-7.762h14.39a4.339 4.339 0 014.334 4.334v14.39h-7.762v-9.175c0-.987-.8-1.787-1.787-1.787zm11.957 18.976H77.57v-4.44h12.856v4.44z" fill="#373737"/></svg>
